X:1
T:Title
%%score ( 1 2 ) ( 3 4 )
L:1/8
Q:1/4=100
M:4/4
K:Bb
V:1 treble nm="Midi_20"
V:2 treble 
V:3 bass nm="Midi_20"
V:4 bass 
V:1
"^Regent Square (87. 87. 87.)""^Henry Smart\n(1813-1879)""^tr. John Mason Neale\n(1818-66)""^Light's abode, celestial Salem" F2 D2 B2 F2 | %1
w: ~~Light's a- bode, ce-|
w: There for e- ver|
w: There no cloud of|
w: O how glo- rious|
w: Now with glad- ness,|
w: Laud and hon- our|
 d3 c B2 F2 | G2 G2 F2 B2 | F2 E2 D4 || F2 D2 B2 F2 | d3 c B2 A2 | B2 A2 G2 AB | A2 G2 F4 || %8
w: les- tial Sa- lem,|Vi- sion dear whence|peace doth spring,|||Man- sion of the *|high- est King;|
w: and for e- ver|Al- le- lu- ia|is out- poured;|||Is the feast- day *|of the Lord;|
w: pass- ing va- pour|Dims the bright- ness|of the air;|||From the Sun of *|suns is there;|
w: and re- splen- dent,|Fra- gile bo- dy,|thou shalt be,|||Full of health, and *|strong, and free,|
w: now with cou- rage,|Bear the bur- den|on thee laid,|||May with end- less *|gifts be paid,|
w: to the Fa- ther,|Laud and hon- our|to the Son,|||E- ver Three and *|e- ver One,|
 c3 c A2 F2 | d3 c B2 G2 | e2 d2 c2 B2 | B2 A2 B4 |] %12
w: ||||
w: ||||
w: ||||
w: ||||
w: ||||
w: ||||
V:2
 D2 B,2 F2 D2 | F3 F F2 F2 | B,2 B,2 B,2 B,2 | C2 A,2 B,4 || D2 B,2 F2 FE | D3 E D2 D2 | %6
w: ||||Bright- er than the *|heart can fan- cy,|
w: ||||For un- end- ing, *|for un- bro- ken|
w: ||||End- less noon- day, *|glo- rious noon- day,|
w: ||||When en- dued with *|so much beau- ty,|
w: ||||That here- af- ter *|these thy la- bours|
w: ||||Laud and hon- our *|to the Spi- rit,|
 D2 D2 D2 D2 | F2 =E2 F4 || F3 F F2 C2 | D3 D E2 E2 | G2 F2 E2 DE | F3 E D4 |] %12
w: ||~O, how glo- rious|are the prais- es|Which of * the *|Pro- phets sing.|
w: ||All is pure and|all is ho- ly|That with- * these *|walls is stored.|
w: ||There no night brings|rest from lab- our,|There * * are *|toil and care.|
w: ||Full of vig- our,|full of plea- sure|That shall * e\- *|ter- nal- ly.|
w: ||And in e- ver-|last- ing glo- ry|Thou with * may'st *|be ar- rayed.|
w: ||Con- sub- stant- ial,|co- e- ter- nal,|While * * ing *|a- ges run.|
V:3
 B,2 F,2 F,2 B,2 | B,3 A, B,2 B,2 | G,2 B,2 F,2 G,2 | F,2 F,2 F,4 || B,2 B,2 F,2 F,2 | %5
w: |||||
w: |||||
w: |||||
w: |||||
w: |||||
w: |||||
 B,3 G, G,2 ^F,2 | G,2 =F,2 D2 CB, | C2 B,2 A,4 || A,3 A, C2 A,2 | B,3 _A, G,2 B,2 | %10
w: |||||
w: |||||
w: |||||
w: |||||
w: |||||
w: |||||
 C2 F,2 G,A, B,2 | C2 C2 B,4 |] %12
w: * * thee * *||
w: * * in * *||
w: * un- known * *||
w: * * last * *||
w: * * joy * *||
w: * un- end\- * *||
V:4
 B,,2 B,,2 D,2 B,,2 | F,3 E, D,2 D,2 | E,2 E,2 D,2 G,,2 | A,,2 F,,2 B,,4 || B,2 F,2 D,2 D,C, | %5
 B,,3 C, D,2 D,2 | G,2 D,2 B,,2 G,,2 | C,2 C,2 F,,4 || F,3 F, F,2 F,2 | B,,3 B,, E,2 E,2 | %10
 C,2 D,2 E,F, G,2 | F,2 F,,2 B,,4 |] %12

